svgs/sharp-light/circle-h.svg

<svg xmlns="http://www.w3.org/2000/svg" viewBox="0 0 512 512"><!--! Font Awesome Pro 6.6.0 by @fontawesome - https://fontawesome.com License - https://fontawesome.com/license (Commercial License) Copyright 2024 Fonticons, Inc. --><path d="M256 32a224 224 0 1 1 0 448 224 224 0 1 1 0-448zm0 480A256 256 0 1 0 256 0a256 256 0 1 0 0 512zM368 144l0-16-32 0 0 16 0 96-160 0 0-96 0-16-32 0 0 16 0 96 0 32 0 96 0 16 32 0 0-16 0-96 160 0 0 96 0 16 32 0 0-16 0-112 0-112z"/></svg>

<svg xmlns="http://www.w3.org/2000/svg" viewBox="0 0 512 512"><!--! Font Awesome Pro 6.4.2 by @fontawesome - https://fontawesome.com License - https://fontawesome.com/license (Commercial License) Copyright 2023 Fonticons, Inc. --><path d="M256 32a224 224 0 1 1 0 448 224 224 0 1 1 0-448zm0 480A256 256 0 1 0 256 0a256 256 0 1 0 0 512zM368 144V128H336v16 96l-160 0V144 128H144v16 96 32l0 96v16h32V368l0-96H336v96 16h32V368 256 144z"/></svg>
